app/assets/images/Contenido/Compartir.svg

<svg fill="none" height="60" viewBox="0 0 54 60" width="54" xmlns="http://www.w3.org/2000/svg"><path d="m45 60c-2.5 0-4.625-.875-6.375-2.625s-2.625-3.875-2.625-6.375c0-.35.025-.713.075-1.089s.125-.713.225-1.011l-21.15-12.3c-.85.75-1.8 1.338-2.85 1.764s-2.15.638-3.3.636c-2.5 0-4.625-.875-6.375-2.625s-2.625-3.875-2.625-6.375.875-4.625 2.625-6.375 3.875-2.625 6.375-2.625c1.15 0 2.25.213 3.3.639s2 1.013 2.85 1.761l21.15-12.3c-.1-.3-.175-.637-.225-1.011s-.075-.737-.075-1.089c0-2.5.875-4.625 2.625-6.375s3.875-2.625 6.375-2.625 4.625.875 6.375 2.625 2.625 3.875 2.625 6.375-.875 4.625-2.625 6.375-3.875 2.625-6.375 2.625c-1.15 0-2.25-.212-3.3-.636s-2-1.012-2.85-1.764l-21.15 12.3c.1.3.175.638.225 1.014s.075.738.075 1.086c0 .35-.025.713-.075 1.089s-.125.713-.225 1.011l21.15 12.3c.85-.75 1.8-1.337 2.85-1.761s2.15-.637 3.3-.639c2.5 0 4.625.875 6.375 2.625s2.625 3.875 2.625 6.375-.875 4.625-2.625 6.375-3.875 2.625-6.375 2.625z" fill="#003778"/></svg>

<svg width="54" height="60" viewBox="0 0 54 60" fill="none" xmlns="http://www.w3.org/2000/svg">
<path d="M45 60C42.5 60 40.375 59.125 38.625 57.375C36.875 55.625 36 53.5 36 51C36 50.65 36.025 50.287 36.075 49.911C36.125 49.535 36.2 49.198 36.3 48.9L15.15 36.6C14.3 37.35 13.35 37.938 12.3 38.364C11.25 38.79 10.15 39.002 9 39C6.5 39 4.375 38.125 2.625 36.375C0.875 34.625 0 32.5 0 30C0 27.5 0.875 25.375 2.625 23.625C4.375 21.875 6.5 21 9 21C10.15 21 11.25 21.213 12.3 21.639C13.35 22.065 14.3 22.652 15.15 23.4L36.3 11.1C36.2 10.8 36.125 10.463 36.075 10.089C36.025 9.715 36 9.352 36 9C36 6.5 36.875 4.375 38.625 2.625C40.375 0.875 42.5 0 45 0C47.5 0 49.625 0.875 51.375 2.625C53.125 4.375 54 6.5 54 9C54 11.5 53.125 13.625 51.375 15.375C49.625 17.125 47.5 18 45 18C43.85 18 42.75 17.788 41.7 17.364C40.65 16.94 39.7 16.352 38.85 15.6L17.7 27.9C17.8 28.2 17.875 28.538 17.925 28.914C17.975 29.29 18 29.652 18 30C18 30.35 17.975 30.713 17.925 31.089C17.875 31.465 17.8 31.802 17.7 32.1L38.85 44.4C39.7 43.65 40.65 43.063 41.7 42.639C42.75 42.215 43.85 42.002 45 42C47.5 42 49.625 42.875 51.375 44.625C53.125 46.375 54 48.5 54 51C54 53.5 53.125 55.625 51.375 57.375C49.625 59.125 47.5 60 45 60Z" fill="#003778"/>
</svg>
